X: 134
T:Cheltenham Waltz,The. CJF.134
M:3/8
L:1/16
Q:50
S:C J Fox 1829/32 (Kidson Coll) M1805
R:Waltz
O:England
A:East Yorkshire
B:Kidson Coll.Mitchell Lib.M1805
N:There is a letter "B" written in the stave, after the end of the tune
N:in the MS. - PJH.
Z:vmp.P J Headford 2000
K:D
A2|f4e2|d4 (d<f)|(e<g) (c<e) (d<f)|A2A2A2|!
f4e2|d4 (d<f)|(e<g) (c<e) (A<c)|d4:|!
|:(d<f)|(e<g) (c<e) (d<f)|(e<g) (c<e) (d<f)|(c<g) (c<e) (d<f)|A6|!
f4e2|d2(d<f)|(e<g) (c<e) (A<c)|d4:|!
|:A2|dcdefg|a2f2a2|babc'd'b|a2faba|!
g2egag|f2dfaf|e2edef|d4:|!
|:(fa)|gaeaga|fadafa|gaeaga|fadafa|!
gaeaga|fad'c'ba|babgec|d4|]
